X:11
T:The Spotted Cow - Parsons
C:Taken down from J. Parsons by S.B.G. 1888.
%%VWML:SBG-1-1-342-0
F:http://www.vwml.org/record/SBG/1/1/342
Z:Original Sibleius Transcription by Martin and Shan Graebe
L:1/8
M:6/8
I:linebreak $
K:G
d | B A B c2 A/ A/ | F E F G2 G | B d e c2 e | (c2 A B2) B | c2 d/ d/ e2 d | dc B A2 B/c/ |$ 
d2 G B2 G | (E3 D2) G | G F G E2 F/G/ | A2 B A2 d | ef g B2 A | G3 G2 z |] 
T:The Spotted Cow - Helmore
T:Taken down from Helmore by H.Fl.S. exactly same 1889.
L:1/8
M:6/8
I:linebreak $
K:G
d | B B B c2 A | F E F G2 G | B d e c2 e | (c2 A) B2 B | c2 d e2 d/ d/ |$ dcB A2 B/c/ | 
d2 G B2 G | (E3 D2) G | G F G E2 F/G/ | A2 B A2 d | ef g B2 A | G3  |] 



